assets/emojis/SquintingFacewithTongue.svg

<svg width="126" height="125" viewBox="0 0 126 125" fill="none" xmlns="http://www.w3.org/2000/svg">
<circle cx="62.917" cy="62.3496" r="62.3496" fill="#F9B42F"/>
<path d="M63.2135 84.608C61.234 84.6044 59.2597 84.4029 57.3203 84.0062V87.5457C57.3062 88.3402 57.4505 89.1294 57.7448 89.8675C58.0391 90.6055 58.4774 91.2775 59.0343 91.8443C59.5912 92.411 60.2554 92.8612 60.9881 93.1684C61.7209 93.4756 62.5075 93.6338 63.302 93.6337C64.0876 93.6337 64.8654 93.479 65.5911 93.1783C66.3169 92.8777 66.9763 92.4371 67.5318 91.8817C68.0872 91.3262 68.5278 90.6668 68.8284 89.941C69.1291 89.2153 69.2838 88.4375 69.2838 87.6519V83.5547C67.2836 83.9341 65.2488 84.658 63.2135 84.608Z" fill="#FF5A60"/>
<path d="M63.2134 84.608H62.417V87.7936C62.417 88.0283 62.5102 88.2533 62.6762 88.4193C62.8421 88.5852 63.0672 88.6785 63.3019 88.6785C63.5365 88.6785 63.7616 88.5852 63.9276 88.4193C64.0935 88.2533 64.1867 88.0283 64.1867 87.7936V84.5903L63.2134 84.608Z" fill="#E93A40"/>
<path d="M63.2127 84.6079C55.8682 84.6079 49.5856 82.0594 47.5858 78.2545C47.3881 77.8484 47.3531 77.3821 47.488 76.9511C47.6229 76.5201 47.9175 76.157 48.3114 75.9361C48.5169 75.8247 48.7423 75.755 48.9749 75.7312C49.2074 75.7074 49.4423 75.7298 49.6661 75.7973C49.8898 75.8648 50.098 75.9759 50.2786 76.1242C50.4592 76.2726 50.6087 76.4553 50.7183 76.6617C51.8509 78.8385 56.6292 81.1392 63.2127 81.1392C69.7962 81.1392 74.8753 78.75 75.8133 76.4316C75.9016 76.2155 76.0316 76.0189 76.1959 75.853C76.3602 75.6871 76.5556 75.5552 76.7709 75.4648C76.9862 75.3744 77.2171 75.3273 77.4506 75.3262C77.6841 75.3251 77.9155 75.3699 78.1317 75.4583C78.3478 75.5466 78.5444 75.6766 78.7103 75.8409C78.8762 76.0052 79.0081 76.2006 79.0985 76.4159C79.1889 76.6311 79.236 76.8621 79.2371 77.0956C79.2382 77.3291 79.1933 77.5605 79.105 77.7766C77.4238 81.7763 70.8934 84.6079 63.2127 84.6079Z" fill="#2C2A46"/>
<path d="M44.7065 61.4002C43.99 61.4002 43.3028 61.1197 42.7961 60.6205C42.2894 60.1212 42.0047 59.4441 42.0047 58.7381C42.0047 57.8343 41.6404 56.9676 40.9918 56.3286C40.3433 55.6896 39.4636 55.3306 38.5464 55.3306C37.6292 55.3306 36.7496 55.6896 36.1011 56.3286C35.4525 56.9676 35.0882 57.8343 35.0882 58.7381C35.0882 59.4441 34.8035 60.1212 34.2968 60.6205C33.7901 61.1197 33.1029 61.4002 32.3864 61.4002C31.6698 61.4002 30.9826 61.1197 30.4759 60.6205C29.9692 60.1212 29.6846 59.4441 29.6846 58.7381C29.6846 56.4223 30.6182 54.2013 32.2802 52.5638C33.9421 50.9263 36.1961 50.0063 38.5464 50.0063C40.8968 50.0063 43.1508 50.9263 44.8127 52.5638C46.4747 54.2013 47.4083 56.4223 47.4083 58.7381C47.4083 59.4441 47.1237 60.1212 46.617 60.6205C46.1103 61.1197 45.4231 61.4002 44.7065 61.4002Z" fill="#2C2A46"/>
<path d="M92.813 61.4002C92.0964 61.4002 91.4092 61.1197 90.9025 60.6205C90.3958 60.1212 90.1112 59.4441 90.1112 58.7381C90.1112 57.8343 89.7468 56.9676 89.0983 56.3286C88.4497 55.6896 87.5701 55.3306 86.6529 55.3306C85.7357 55.3306 84.8561 55.6896 84.2075 56.3286C83.5589 56.9676 83.1946 57.8343 83.1946 58.7381C83.1946 59.4441 82.9099 60.1212 82.4033 60.6205C81.8966 61.1197 81.2094 61.4002 80.4928 61.4002C79.7762 61.4002 79.089 61.1197 78.5823 60.6205C78.0757 60.1212 77.791 59.4441 77.791 58.7381C77.791 56.4223 78.7247 54.2013 80.3866 52.5638C82.0485 50.9263 84.3026 50.0063 86.6529 50.0063C89.0032 50.0063 91.2573 50.9263 92.9192 52.5638C94.5811 54.2013 95.5148 56.4223 95.5148 58.7381C95.5148 59.4441 95.2301 60.1212 94.7234 60.6205C94.2167 61.1197 93.5295 61.4002 92.813 61.4002Z" fill="#2C2A46"/>
<path opacity="0.3" fill-rule="evenodd" clip-rule="evenodd" d="M115.077 98.3676C103.756 109.959 87.9535 117.154 70.4706 117.154C36.0359 117.154 8.12103 89.2396 8.12103 54.8048C8.12103 41.4092 12.3455 29.0002 19.5348 18.8374C8.55712 30.0765 1.79199 45.4483 1.79199 62.4002C1.79199 96.8349 29.7069 124.75 64.1416 124.75C85.1807 124.75 103.786 114.329 115.077 98.3676Z" fill="#BC8417"/>
</svg>

<svg xmlns="http://www.w3.org/2000/svg" width="126" height="125" fill="none" viewBox="0 0 126 125"><circle cx="62.917" cy="62.35" r="62.35" fill="#f9b42f"/><path fill="#ff5a60" d="M63.214 84.608a29.7 29.7 0 0 1-5.894-.602v3.54a5.982 5.982 0 1 0 11.964.106v-4.097c-2 .38-4.035 1.103-6.07 1.053"/><path fill="#e93a40" d="M63.213 84.608h-.796v3.186a.885.885 0 1 0 1.77 0V84.59z"/><path fill="#2c2a46" d="M63.213 84.608c-7.345 0-13.627-2.549-15.627-6.354a1.77 1.77 0 0 1 .725-2.318 1.77 1.77 0 0 1 2.407.726c1.133 2.176 5.911 4.477 12.495 4.477s11.662-2.389 12.6-4.707a1.778 1.778 0 0 1 3.292 1.345c-1.681 4-8.212 6.83-15.892 6.83M44.707 61.4c-.717 0-1.404-.28-1.91-.78a2.64 2.64 0 0 1-.792-1.882c0-.904-.365-1.77-1.013-2.41a3.5 3.5 0 0 0-2.446-.997c-.917 0-1.796.359-2.445.998a3.38 3.38 0 0 0-1.013 2.41c0 .705-.285 1.382-.791 1.882a2.72 2.72 0 0 1-1.91.78 2.73 2.73 0 0 1-1.911-.78 2.64 2.64 0 0 1-.791-1.883c0-2.316.933-4.537 2.595-6.174a8.93 8.93 0 0 1 6.266-2.558c2.35 0 4.605.92 6.267 2.558a8.67 8.67 0 0 1 2.595 6.174c0 .706-.284 1.383-.791 1.883a2.72 2.72 0 0 1-1.91.78m48.106-.001c-.717 0-1.404-.28-1.91-.78a2.64 2.64 0 0 1-.792-1.882c0-.904-.364-1.77-1.013-2.41a3.5 3.5 0 0 0-2.445-.997c-.917 0-1.797.359-2.446.998a3.38 3.38 0 0 0-1.012 2.41c0 .705-.285 1.382-.792 1.882a2.72 2.72 0 0 1-1.91.78 2.72 2.72 0 0 1-1.91-.78 2.64 2.64 0 0 1-.792-1.883c0-2.316.934-4.537 2.596-6.174a8.93 8.93 0 0 1 6.266-2.558c2.35 0 4.604.92 6.266 2.558a8.67 8.67 0 0 1 2.596 6.174c0 .706-.285 1.383-.792 1.883a2.72 2.72 0 0 1-1.91.78"/><path fill="#bc8417" fill-rule="evenodd" d="M115.077 98.368c-11.321 11.591-27.123 18.786-44.606 18.786-34.435 0-62.35-27.914-62.35-62.35 0-13.395 4.224-25.804 11.414-35.967C8.557 30.077 1.792 45.448 1.792 62.4c0 34.435 27.915 62.35 62.35 62.35 21.039 0 39.644-10.421 50.935-26.382" clip-rule="evenodd" opacity=".3"/></svg>
